svgs/light/table-columns.svg

<svg xmlns="http://www.w3.org/2000/svg" viewBox="0 0 512 512"><!-- Font Awesome Pro 6.0.0-alpha2 by @fontawesome - https://fontawesome.com License - https://fontawesome.com/license (Commercial License) --><path d="M448 32H64C28.654 32 0 60.652 0 96V416C0 451.346 28.654 480 64 480H448C483.346 480 512 451.346 512 416V96C512 60.652 483.346 32 448 32ZM240 448H64C46.355 448 32 433.645 32 416V192H240V448ZM480 416C480 433.645 465.645 448 448 448H272V192H480V416ZM480 160H32V96C32 78.355 46.355 64 64 64H448C465.645 64 480 78.355 480 96V160Z"/></svg>

<svg xmlns="http://www.w3.org/2000/svg" viewBox="0 0 512 512"><!--! Font Awesome Pro 6.4.0 by @fontawesome - https://fontawesome.com License - https://fontawesome.com/license (Commercial License) Copyright 2023 Fonticons, Inc. --><path d="M448 64c17.7 0 32 14.3 32 32v64L32 160l0-64c0-17.7 14.3-32 32-32l384 0zM32 416l0-224 208 0 0 256L64 448c-17.7 0-32-14.3-32-32zm240 32l0-256 208 0 0 224c0 17.7-14.3 32-32 32H272zM64 32C28.7 32 0 60.7 0 96L0 416c0 35.3 28.7 64 64 64l384 0c35.3 0 64-28.7 64-64l0-320c0-35.3-28.7-64-64-64L64 32z"/></svg>
